images_sukapura_svg/cmd/32/deletecolumns.svg

<svg viewBox="0 0 32 32" xmlns="http://www.w3.org/2000/svg" xmlns:xlink="http://www.w3.org/1999/xlink"><linearGradient id="a" gradientUnits="userSpaceOnUse" x1="15" x2="15" y1="0" y2="24"><stop offset="0" stop-color="#efefef"/><stop offset=".33333334" stop-color="#fff"/><stop offset=".8888889" stop-color="#fff"/><stop offset="1" stop-color="#f5f5f5"/></linearGradient><filter id="b" color-interpolation-filters="sRGB" height="1.116265" width="1.123983" x="-.061992" y="-.058132"><feGaussianBlur stdDeviation=".61991525"/></filter><path d="m4 5v20.59375h12v-20.59375zm19 0v20.59375h5v-20.59375z" filter="url(#b)" opacity=".15" stroke-width="1.032659"/><path d="m4 4c-.554 0-1 .446-1 1v19c0 .554.446 1 1 1h12v-1h-1-5-1-5v-4-1-4-1-4-1-4h12v-1zm19 0v1h5v4 1 4 1 4 1 4h-5v1h5c.554 0 1-.446 1-1v-19c0-.554-.446-1-1-1z" fill="#69696e"/><path d="m4 5v19h12v-19zm19 0v19h5v-19z" fill="url(#a)"/><path d="m9 5v4h-5v1h5v4h-5v1h5v4h-5v1h5v4h1v-4h5v4h1v-4-1-4-1-4-1-4h-1v4h-5v-4zm14 0v4 1 4 1 4 1 4h1v-4h4v-1h-4v-4h4v-1h-4v-4h4v-1h-4v-4zm-13 5h5v4h-5zm0 5h5v4h-5z" fill="#bababa"/><g transform="translate(0 1)"><path d="m17 9h5v19h-5z" fill="#fe665f" fill-opacity=".968627"/><path d="m16 8v21h1 5 1v-21h-1-5zm1 1h5v4h-5zm0 5h5v4h-5zm0 5h5v4h-5zm0 5h5v4h-5z" fill="#c20618"/></g><path d="m-49 19h12v3h-12z" fill="#fe665f" fill-opacity=".968627"/><g fill="#c20618"><path d="m-50 18v5h14v-5zm1 1h5v3h-5zm6 0h6v3h-6z"/><path d="m17.492571 2.5031448-.988221.9380064 1.785626 1.8338328a.30663488.30663488 0 0 1 -.0021.4298358l-1.787636 1.8057126.99023.978178 1.787635-1.890073a.30663488.30663488 0 0 1 .445905 0l1.789687 1.8880643.972153-.9701436-1.769558-1.8016954a.30663488.30663488 0 0 1 -.008-.419793l1.707323-1.89409-.940015-.8938177-1.75349 1.7976783a.30663488.30663488 0 0 1 -.435862.002z" stroke-width=".761218"/></g></svg>

<?xml version="1.0" encoding="UTF-8" standalone="no"?>
<svg
   xmlns:dc="http://purl.org/dc/elements/1.1/"
   xmlns:cc="http://creativecommons.org/ns#"
   xmlns:rdf="http://www.w3.org/1999/02/22-rdf-syntax-ns#"
   xmlns:svg="http://www.w3.org/2000/svg"
   xmlns="http://www.w3.org/2000/svg"
   xmlns:sodipodi="http://sodipodi.sourceforge.net/DTD/sodipodi-0.dtd"
   xmlns:inkscape="http://www.inkscape.org/namespaces/inkscape"
   viewBox="0 0 32 32"
   version="1.1"
   id="svg26"
   sodipodi:docname="deletecolumns.svg"
   inkscape:export-filename="/home/rizmut/Dokumen/Rizmut/Github/libreoffice-style-sukapura/images_sukapura/cmd/32/deletecolumns.png"
   inkscape:export-xdpi="96"
   inkscape:export-ydpi="96"
   inkscape:version="0.92.3 (unknown)">
  <metadata
     id="metadata32">
    <rdf:RDF>
      <cc:Work
         rdf:about="">
        <dc:format>image/svg+xml</dc:format>
        <dc:type
           rdf:resource="http://purl.org/dc/dcmitype/StillImage" />
        <dc:title></dc:title>
      </cc:Work>
    </rdf:RDF>
  </metadata>
  <defs
     id="defs30" />
  <sodipodi:namedview
     pagecolor="#ffffff"
     bordercolor="#666666"
     borderopacity="1"
     objecttolerance="10"
     gridtolerance="10"
     guidetolerance="10"
     inkscape:pageopacity="0"
     inkscape:pageshadow="2"
     inkscape:window-width="1366"
     inkscape:window-height="697"
     id="namedview28"
     showgrid="true"
     inkscape:zoom="14.75"
     inkscape:cx="16.65017"
     inkscape:cy="18.232815"
     inkscape:window-x="0"
     inkscape:window-y="0"
     inkscape:window-maximized="1"
     inkscape:current-layer="g967"
     inkscape:snap-global="false">
    <inkscape:grid
       type="xygrid"
       id="grid839"
       spacingx="0.5"
       spacingy="0.5"
       empspacing="2" />
  </sodipodi:namedview>
  <linearGradient
     id="a"
     gradientUnits="userSpaceOnUse"
     x1="15"
     x2="15"
     y1="4"
     y2="28"
     gradientTransform="translate(0,-4)">
    <stop
       offset="0"
       stop-color="#efefef"
       id="stop2" />
    <stop
       offset=".33333334"
       stop-color="#fff"
       id="stop4" />
    <stop
       offset=".8888889"
       stop-color="#fff"
       id="stop6" />
    <stop
       offset="1"
       stop-color="#f5f5f5"
       id="stop8" />
  </linearGradient>
  <filter
     id="b"
     color-interpolation-filters="sRGB"
     height="1.116265"
     width="1.123983"
     x="-.061992"
     y="-.058132">
    <feGaussianBlur
       stdDeviation=".61991525"
       id="feGaussianBlur11" />
  </filter>
  <g
     id="g967">
    <g
       id="g954">
      <path
         style="opacity:0.15;stroke-width:1.03265905;filter:url(#b)"
         d="M 4,5 V 25.59375 H 16 V 5 Z m 19,0 v 20.59375 h 5 V 5 Z"
         id="path14"
         inkscape:connector-curvature="0" />
      <path
         style="fill:#69696e"
         d="M 4,4 C 3.446,4 3,4.446 3,5 v 19 c 0,0.554 0.446,1 1,1 H 16 V 24 H 15 10 9 4 V 20 19 15 14 10 9 5 H 16 V 4 Z m 19,0 v 1 h 5 v 4 1 4 1 4 1 4 h -5 v 1 h 5 c 0.554,0 1,-0.446 1,-1 V 5 C 29,4.446 28.554,4 28,4 Z"
         id="path16"
         inkscape:connector-curvature="0" />
      <path
         style="fill:url(#a)"
         d="M 4,5 V 24 H 16 V 5 Z m 19,0 v 19 h 5 V 5 Z"
         id="path18"
         inkscape:connector-curvature="0" />
      <path
         style="fill:#bababa"
         d="M 9,5 V 9 H 4 v 1 h 5 v 4 H 4 v 1 h 5 v 4 H 4 v 1 h 5 v 4 h 1 v -4 h 5 v 4 h 1 V 20 19 15 14 10 9 5 H 15 V 9 H 10 V 5 Z m 14,0 v 4 1 4 1 4 1 4 h 1 v -4 h 4 v -1 h -4 v -4 h 4 v -1 h -4 v -4 h 4 V 9 H 24 V 5 Z m -13,5 h 5 v 4 h -5 z m 0,5 h 5 v 4 h -5 z"
         id="path22"
         inkscape:connector-curvature="0" />
    </g>
    <g
       id="g948">
      <g
         id="g896"
         transform="translate(0,1)">
        <rect
           y="9"
           x="17"
           height="19"
           width="5"
           id="rect880"
           style="opacity:1;fill:#fe665f;fill-opacity:0.96862745;stroke:none;stroke-width:1;stroke-linecap:round;stroke-linejoin:round;stroke-miterlimit:4;stroke-dasharray:none;stroke-opacity:0" />
        <path
           inkscape:connector-curvature="0"
           id="rect841"
           d="m 16,8 v 21 h 1 5 1 V 8 h -1 -5 z m 1,1 h 5 v 4 h -5 z m 0,5 h 5 v 4 h -5 z m 0,5 h 5 v 4 h -5 z m 0,5 h 5 v 4 h -5 z"
           style="opacity:1;fill:#c20618;fill-opacity:1;stroke:none;stroke-width:1;stroke-linecap:round;stroke-linejoin:round;stroke-miterlimit:4;stroke-dasharray:none;stroke-opacity:0" />
      </g>
    </g>
    <rect
       y="19"
       x="-49"
       height="3"
       width="12"
       id="rect1686"
       style="opacity:1;fill:#fe665f;fill-opacity:0.96862745;stroke:none;stroke-width:2;stroke-linecap:round;stroke-linejoin:round;stroke-miterlimit:4;stroke-dasharray:none;stroke-opacity:1" />
    <path
       style="fill:#c20618;fill-opacity:1"
       d="m -50,18 v 5 h 14 v -5 z m 1,1 h 5 v 3 h -5 z m 6,0 h 6 v 3 h -6 z"
       id="path1648"
       inkscape:connector-curvature="0"
       sodipodi:nodetypes="ccccccccccccccc" />
    <path
       style="fill:#c20618;fill-opacity:1;stroke-width:0.76121777"
       d="M 17.492571,2.5031448 16.50435,3.4411512 18.289976,5.274984 a 0.30663488,0.30663488 0 0 1 -0.0021,0.4298358 l -1.787636,1.8057126 0.99023,0.978178 1.787635,-1.890073 a 0.30663488,0.30663488 0 0 1 0.445905,0 L 21.513697,8.4867017 22.48585,7.5165581 20.716292,5.7148627 a 0.30663488,0.30663488 0 0 1 -0.008,-0.419793 L 22.415615,3.4009797 21.4756,2.507162 19.72211,4.3048403 a 0.30663488,0.30663488 0 0 1 -0.435862,0.002 z"
       id="path6"
       inkscape:connector-curvature="0" />
  </g>
</svg>
